src/actions/22/mail-forwarded.svg

<svg version="1.1" viewBox="0 0 22 22" xmlns="http://www.w3.org/2000/svg">
 <defs>
  <style id="current-color-scheme" type="text/css">.ColorScheme-Text {
        color:#363636;
      }</style>
 </defs>
 <path class="ColorScheme-Text" d="m17.707 11-0.70703 0.70703 2.293 2.293h-4.293v1h4.293l-2.293 2.293 0.70703 0.70703 3.5-3.5-0.20703-0.20703z" fill="currentColor"/>
 <path class="ColorScheme-Text" d="m7 1c-1.108 0-2 0.892-2 2v1c-1.662 0-3 1.338-3 3v8c0 1.662 1.338 3 3 3h10v-1h-10c-1.0692 0-1.9288-0.83296-1.9883-1.8867l4.5977-3.498 0.7207 0.54883c1.4653 1.1144 3.8764 1.1144 5.3418 0l0.71875-0.54687 0.8125-0.61719 3.7969-2.8887v2.8887h1v-4c0-1.662-1.338-3-3-3v-1c0-1.108-0.892-2-2-2zm0 1h8c0.554 0 1 0.446 1 1v6.1582l-3.1406 2.3887c-1.0302 0.78348-2.6886 0.78347-3.7188 0l-3.1406-2.3887v-6.1582c0-0.554 0.446-1 1-1zm0.5 2c-0.277 0-0.5 0.223-0.5 0.5s0.223 0.5 0.5 0.5h7c0.277 0 0.5-0.223 0.5-0.5s-0.223-0.5-0.5-0.5zm-2.5 1v3.3984l-1.9883-1.5117c0.059506-1.0538 0.91908-1.8867 1.9883-1.8867zm12 0c1.0692 0 1.9288 0.83296 1.9883 1.8867l-1.9883 1.5117zm-9.5 2c-0.277 0-0.5 0.223-0.5 0.5s0.223 0.5 0.5 0.5h7c0.277 0 0.5-0.223 0.5-0.5s-0.223-0.5-0.5-0.5zm-4.5 1.1094 3.8008 2.8906-3.8008 2.8887z" fill="currentColor"/>
</svg>

<svg xmlns="http://www.w3.org/2000/svg" viewBox="0 0 22 22">
    <defs>
        <style id="current-color-scheme" type="text/css">
            .ColorScheme-Text{color:#050505;opacity:.7}
        </style>
    </defs>
    <path fill="currentColor" d="m17.707 11-.707.707L19.293 14H15v1h4.293L17 17.293l.707.707 3.5-3.5-.207-.207z" class="ColorScheme-Text"/>
    <path fill="currentColor" d="M7 1c-1.108 0-2 .892-2 2v1C3.338 4 2 5.338 2 7v8c0 1.662 1.338 3 3 3h10v-1H5a1.99 1.99 0 0 1-1.988-1.887l4.597-3.498.721.55c1.465 1.114 3.876 1.114 5.342 0l.719-.548.812-.617L19 8.111v2.89h1V7c0-1.663-1.338-3-3-3V3c0-1.109-.892-2-2-2zm0 1h8c.554 0 1 .446 1 1v6.158l-3.14 2.389c-1.03.783-2.69.783-3.72 0L6 9.158V3c0-.554.446-1 1-1zm.5 2a.499.499 0 1 0 0 1h7a.499.499 0 1 0 0-1zM5 5v3.398L3.012 6.887A1.99 1.99 0 0 1 5 5zm12 0a1.99 1.99 0 0 1 1.988 1.887L17 8.398zM7.5 7a.499.499 0 1 0 0 1h7a.499.499 0 1 0 0-1zM3 8.11 6.8 11 3 13.889z" class="ColorScheme-Text"/>
</svg>
